svg/briefcase_arrow_up_down_outline.svg

<svg xmlns="http://www.w3.org/2000/svg" id="mdi-briefcase-arrow-up-down-outline" viewBox="0 0 24 24"><path d="M10 2H14C15.11 2 16 2.9 16 4V6H20C21.11 6 22 6.9 22 8V13.53C21.42 13 20.75 12.6 20 12.34V8H4V19H12.08C12.2 19.72 12.45 20.39 12.8 21H4C2.9 21 2 20.11 2 19V8C2 6.9 2.9 6 4 6H8V4C8 2.9 8.9 2 10 2M14 6V4H10V6H14M17.5 19H19V15H21V19H22.5L20 22L17.5 19M17 17V21H15V17H13.5L16 14L18.5 17H17Z" /></svg>

<svg xmlns="http://www.w3.org/2000/svg" viewBox="0 0 24 24"><path d="M10 2h4a2 2 0 0 1 2 2v2h4a2 2 0 0 1 2 2v5.53a5.7 5.7 0 0 0-2-1.19V8H4v11h8.08c.12.72.37 1.39.72 2H4a2 2 0 0 1-2-2V8c0-1.1.9-2 2-2h4V4c0-1.1.9-2 2-2m4 4V4h-4v2zm3.5 13H19v-4h2v4h1.5L20 22zm-.5-2v4h-2v-4h-1.5l2.5-3 2.5 3z"/></svg>
